src/images/icons/Curators.svg

<svg width="20" height="20" viewBox="0 0 20 20" fill="none" xmlns="http://www.w3.org/2000/svg">
<path d="M10 20C4.48606 20 0 15.5139 0 10C0 4.48606 4.48606 0 10 0C15.5139 0 20 4.48606 20 10C20 15.5139 15.5139 20 10 20ZM10 1.53846C5.33654 1.53846 1.53846 5.33654 1.53846 10C1.53846 14.6635 5.33654 18.4615 10 18.4615C14.6635 18.4615 18.4615 14.6659 18.4615 10C18.4615 5.33413 14.6659 1.53846 10 1.53846Z" fill="white"/>
<path d="M13.2537 11.7307C12.4171 11.7307 11.609 11.3596 10.9777 10.686C10.3533 10.0088 9.98 9.13792 9.92001 8.21872C9.84934 7.22353 10.1546 6.30766 10.7796 5.64084C11.4046 4.97401 12.2782 4.61536 13.2537 4.61536C14.2219 4.61536 15.0984 4.9817 15.7215 5.64709C16.3445 6.31247 16.6575 7.23363 16.5868 8.21968C16.5257 9.13833 16.1525 10.0085 15.5291 10.686C14.8974 11.3596 14.0897 11.7307 13.2537 11.7307ZM5.56857 11.8923C4.1378 11.8923 2.87963 10.5697 2.76424 8.94372C2.70511 8.11103 2.96376 7.34132 3.49357 6.77641C4.02338 6.21151 4.75415 5.91103 5.56809 5.91103C6.38203 5.91103 7.11232 6.22064 7.63876 6.78314C8.1652 7.34564 8.43203 8.12064 8.37194 8.94661C8.25463 10.5702 6.99693 11.8923 5.56857 11.8923ZM17.9027 14.773C17.8263 14.5471 17.6402 14.3062 17.2671 14.0779C16.1392 13.3889 14.7517 13.0245 13.2537 13.0245C11.784 13.0245 10.358 13.4043 9.2378 14.0942C7.97578 14.8716 7.1277 16.0053 6.78588 17.3721C6.70511 17.6937 6.58732 18.2923 6.71328 18.6274C8.73467 19.3961 10.9617 19.4313 13.0064 18.727C15.0511 18.0227 16.784 16.6235 17.9032 14.773H17.9027ZM5.55944 16.9889C5.89934 15.6327 6.6229 14.5019 7.74549 13.5875C7.79856 13.5437 7.83892 13.4865 7.86235 13.4218C7.88578 13.3571 7.89144 13.2873 7.87872 13.2197C7.866 13.1521 7.83538 13.0891 7.79004 13.0374C7.74471 12.9856 7.68632 12.947 7.62097 12.9255C7.04405 12.7413 6.3854 12.6428 5.56857 12.6428C4.42338 12.6428 3.20751 12.9529 2.29261 13.5163C2.03299 13.6764 1.77819 13.738 1.58203 13.7928C2.36957 15.5333 3.67558 16.9881 5.32145 17.9581L5.40751 17.9514C5.42633 17.6264 5.47722 17.304 5.55944 16.9889Z" fill="white"/>
<path d="M1 10C1 5.02944 5.02944 1 10 1C14.9706 1 19 5.02944 19 10C19 14.9706 14.9706 19 10 19C5.02944 19 1 14.9706 1 10Z" stroke="white" stroke-width="2"/>
</svg>

<svg width="20" height="20" fill="none" xmlns="http://www.w3.org/2000/svg"><path d="M10 20C4.486 20 0 15.514 0 10S4.486 0 10 0s10 4.486 10 10-4.486 10-10 10zm0-18.462c-4.663 0-8.462 3.799-8.462 8.462 0 4.664 3.799 8.462 8.462 8.462 4.664 0 8.462-3.796 8.462-8.462S14.666 1.538 10 1.538z" fill="#fff"/><path d="M13.254 11.73c-.837 0-1.645-.37-2.276-1.044A4.027 4.027 0 0 1 9.92 8.219c-.07-.995.235-1.911.86-2.578.625-.667 1.498-1.026 2.474-1.026.968 0 1.844.367 2.468 1.032.623.665.935 1.587.865 2.573a4.038 4.038 0 0 1-1.058 2.466c-.632.674-1.44 1.045-2.275 1.045zm-7.685.162c-1.431 0-2.69-1.322-2.805-2.948-.059-.833.2-1.603.73-2.168.53-.564 1.26-.865 2.074-.865.814 0 1.544.31 2.07.872.527.563.794 1.338.734 2.164-.117 1.623-1.375 2.945-2.803 2.945zm12.334 2.881c-.077-.226-.263-.467-.636-.695-1.128-.69-2.515-1.053-4.013-1.053-1.47 0-2.896.38-4.016 1.07-1.262.777-2.11 1.91-2.452 3.277-.08.322-.199.92-.073 1.255a9.24 9.24 0 0 0 11.19-3.854zM5.559 16.989c.34-1.356 1.064-2.487 2.186-3.402a.385.385 0 0 0-.124-.662c-.577-.184-1.236-.282-2.052-.282-1.146 0-2.361.31-3.276.873-.26.16-.515.222-.711.277a9.271 9.271 0 0 0 3.74 4.165l.086-.007c.018-.325.07-.647.151-.962z" fill="#fff"/><path d="M1 10a9 9 0 1 1 18 0 9 9 0 0 1-18 0z" stroke="#fff" stroke-width="2"/></svg>
